X:1
T: There Cam' a Young Man
R:Jig
Q:180
K:Am
M:6/8
L:1/16
|:E2|A2B2A2 c4d2|e2d2c2 B4A2|G2A2G2 B4c2|d2g2e2 d2B2G2|
A2B2A2 B2c2d2|e2d2c2 B2c2d2|e4A2 A2B2^G2|A6A4:|
|:B2|c4e2 g4a2|g2e2c2 g2e2c2|G4B2 d4e2|d2g2e2 d2B2G2|
c4e2 g4a2|g2e2c2 d2e2g2|a4A2 A2B2^G2|A6A4:|
